libs/icons/src/svg/add-image.svg

<svg width="16" height="16" viewBox="0 0 16 16" fill="none" xmlns="http://www.w3.org/2000/svg">
<g clip-path="url(#clip0_3_3744)">
<path d="M0 0.666667C0 0.298477 0.298477 0 0.666667 0H14.6667C15.0349 0 15.3333 0.298477 15.3333 0.666667V8.66667C15.3333 9.03486 15.0349 9.33333 14.6667 9.33333C14.2985 9.33333 14 9.03486 14 8.66667V1.33333H1.33333V14H8.66667C9.03486 14 9.33333 14.2985 9.33333 14.6667C9.33333 15.0349 9.03486 15.3333 8.66667 15.3333H0.666667C0.298477 15.3333 0 15.0349 0 14.6667V0.666667Z" fill="#202327"/>
<path d="M11.8047 6.86193C12.0651 7.12228 12.0651 7.54439 11.8047 7.80474L8.47141 11.1381C8.23681 11.3727 7.86541 11.3991 7.6 11.2L5.39589 9.54692L3.80474 11.1381C3.54439 11.3984 3.12228 11.3984 2.86193 11.1381C2.60158 10.8777 2.60158 10.4556 2.86193 10.1953L4.86193 8.19526C5.09652 7.96067 5.46792 7.93427 5.73333 8.13333L7.93744 9.78642L10.8619 6.86193C11.1223 6.60158 11.5444 6.60158 11.8047 6.86193Z" fill="#202327"/>
<path fill-rule="evenodd" clip-rule="evenodd" d="M6 2.66667C4.89543 2.66667 4 3.5621 4 4.66667C4 5.77124 4.89543 6.66667 6 6.66667C7.10457 6.66667 8 5.77124 8 4.66667C8 3.5621 7.10457 2.66667 6 2.66667ZM5.33333 4.66667C5.33333 4.29848 5.63181 4 6 4C6.36819 4 6.66667 4.29848 6.66667 4.66667C6.66667 5.03486 6.36819 5.33333 6 5.33333C5.63181 5.33333 5.33333 5.03486 5.33333 4.66667Z" fill="#202327"/>
<path d="M13.3333 10.6667C13.7015 10.6667 14 10.9651 14 11.3333V12.6667H15.3333C15.7015 12.6667 16 12.9651 16 13.3333C16 13.7015 15.7015 14 15.3333 14H14V15.3333C14 15.7015 13.7015 16 13.3333 16C12.9651 16 12.6667 15.7015 12.6667 15.3333V14H11.3333C10.9651 14 10.6667 13.7015 10.6667 13.3333C10.6667 12.9651 10.9651 12.6667 11.3333 12.6667H12.6667V11.3333C12.6667 10.9651 12.9651 10.6667 13.3333 10.6667Z" fill="#202327"/>
</g>
<defs>
<clipPath id="clip0_3_3744">
<rect width="16" height="16" fill="white"/>
</clipPath>
</defs>
</svg>

<svg xmlns="http://www.w3.org/2000/svg" viewBox="0 0 16 16" class="sageicon"><path d="M0 .667C0 .298.298 0 .667 0h14c.368 0 .666.298.666.667v8a.667.667 0 1 1-1.333 0V1.333H1.333V14h7.334a.667.667 0 0 1 0 1.333h-8A.667.667 0 0 1 0 14.667v-14Z"/><path d="M11.805 6.862c.26.26.26.682 0 .943L8.47 11.138a.667.667 0 0 1-.871.062L5.396 9.547l-1.591 1.591a.667.667 0 0 1-.943-.943l2-2a.667.667 0 0 1 .871-.062l2.204 1.653 2.925-2.924c.26-.26.682-.26.943 0Z"/><path fill-rule="evenodd" d="M6 2.667a2 2 0 1 0 0 4 2 2 0 0 0 0-4Zm-.667 2a.667.667 0 1 1 1.334 0 .667.667 0 0 1-1.334 0Z"/><path d="M13.333 10.667c.368 0 .667.298.667.666v1.334h1.333a.667.667 0 1 1 0 1.333H14v1.333a.667.667 0 0 1-1.333 0V14h-1.334a.667.667 0 0 1 0-1.333h1.334v-1.334c0-.368.298-.666.666-.666Z"/></svg>
